X:95
T: Tizenkét kőműves
M: 3/4
L: 1/8
K: F
ggfe fg | aagf ed |
defg fe | ccde dc | 
dcBA Bc | dcBA GA | 
dcBA Bc | GGcB GG | 

